X: 18005
T: Hughie Travers'
R: jig
M: 6/8
K: Dmajor
B|AFE F2D|AFD EFE|DFA dcd|BAF E2B|
AFE F2D|AFD EFE|DFA dcd|BAF D2:|
|:E|FAA BAA|dAA BAF|DFA dcd|BAF E2D|
FAA BAA|dAA BAF|DFA dcd|BAF D2:|

